apps/symbolic/system-software-install-symbolic.svg

<?xml version="1.0" encoding="UTF-8" standalone="no"?>
<svg
   id="svg4434"
   height="16"
   width="16"
   version="1.1"
   xml:space="preserve"
   xmlns:xlink="http://www.w3.org/1999/xlink"
   xmlns="http://www.w3.org/2000/svg"
   xmlns:svg="http://www.w3.org/2000/svg"
   xmlns:rdf="http://www.w3.org/1999/02/22-rdf-syntax-ns#"
   xmlns:cc="http://creativecommons.org/ns#"
   xmlns:dc="http://purl.org/dc/elements/1.1/"><defs
     id="defs4436"><linearGradient
       id="linearGradient41"><stop
         style="stop-color:#ed5353;stop-opacity:1;"
         offset="0"
         id="stop41" /><stop
         style="stop-color:#c6262e;stop-opacity:1;"
         offset="1"
         id="stop42" /></linearGradient><linearGradient
       xlink:href="#linearGradient41"
       id="linearGradient42"
       x1="68"
       y1="25.841551"
       x2="68"
       y2="118.5"
       gradientUnits="userSpaceOnUse" /></defs><metadata
     id="metadata4439"><rdf:RDF><cc:Work
         rdf:about=""><dc:format>image/svg+xml</dc:format><dc:type
           rdf:resource="http://purl.org/dc/dcmitype/StillImage" /></cc:Work></rdf:RDF></metadata><g
     id="g41"
     style="fill:url(#linearGradient42);fill-opacity:1;stroke:none;stroke-width:3.9999984;stroke-dasharray:none"
     transform="matrix(0.2500001,0,0,0.2500001,3.9999965,4.4410896)" /><g
     id="g15"
     transform="matrix(0.67500027,0,0,0.13889005,38.30001,28.163851)"
     style="stroke-width:3.26597202;stroke-dasharray:none"><g
       id="g14"
       transform="matrix(1.0526,0,0,1.2857,-1.2632,-13.429)"
       style="opacity:0.4;stroke-width:2.80744305;stroke-dasharray:none" /></g><g
     id="g12"
     transform="matrix(0.11666673,0,0,0.11666673,0.39999603,-0.49446373)"
     style="stroke-width:8.57142;stroke-dasharray:none"><path
       id="rect4"
       style="opacity:1;fill:none;stroke:#555761;stroke-width:8.57142;stroke-linecap:round;stroke-linejoin:round;stroke-dasharray:none;stroke-opacity:1"
       d="M 77.999991,59.952514 V 31.074181 c 0,-2.996781 -2.410582,-5.407363 -5.407363,-5.407363 H 23.407387 c -2.996781,0 -5.407363,2.410582 -5.407363,5.407363 v 28.878333" /><path
       id="rect10"
       style="opacity:1;fill:#555761;fill-opacity:1;stroke:none;stroke-width:10.9977;stroke-linecap:round;stroke-linejoin:miter;stroke-dasharray:none;stroke-opacity:1"
       d="M 39.428584,29.95253 V 47.095378 H 56.571432 V 29.95253 Z" /></g><path
     id="rect3"
     style="fill:#555761;fill-opacity:1;stroke:none;stroke-width:1;stroke-linejoin:round;stroke-dasharray:none;stroke-opacity:1"
     d="m 11,5 v 6.5 c 0.828427,0 1.5,0.671573 1.5,1.5 -7.7e-4,0.369335 -0.137772,0.725403 -0.384766,1 h 1.71875 C 14.49217,14 15,13.375971 15,12.738281 V 9 H 13 V 6 h 1.970703 C 14.855403,5.4640066 14.400994,5 13.833984,5 Z" /><circle
     style="fill:none;stroke:#555761;stroke-width:1;stroke-linejoin:round;stroke-dasharray:none;stroke-opacity:1"
     id="circle20"
     cx="11"
     cy="13"
     r="1.5" /><circle
     style="fill:none;stroke:#555761;stroke-width:1;stroke-linejoin:round;stroke-dasharray:none;stroke-opacity:1"
     id="circle1"
     cx="5"
     cy="13"
     r="1.5" /><path
     id="rect2"
     d="m 1,8 v 4 H 11 V 8 Z"
     style="fill:#555761;stroke:none;stroke-width:1;stroke-linejoin:round;stroke-dasharray:none;stroke-opacity:1;fill-opacity:1" /></svg>

<?xml version="1.0" encoding="UTF-8" standalone="no"?>
<svg
   id="svg4434"
   height="16"
   width="16"
   version="1.1"
   xml:space="preserve"
   xmlns:xlink="http://www.w3.org/1999/xlink"
   xmlns="http://www.w3.org/2000/svg"
   xmlns:svg="http://www.w3.org/2000/svg"
   xmlns:rdf="http://www.w3.org/1999/02/22-rdf-syntax-ns#"
   xmlns:cc="http://creativecommons.org/ns#"
   xmlns:dc="http://purl.org/dc/elements/1.1/"><defs
     id="defs4436"><linearGradient
       id="linearGradient41"><stop
         style="stop-color:#ed5353;stop-opacity:1;"
         offset="0"
         id="stop41" /><stop
         style="stop-color:#c6262e;stop-opacity:1;"
         offset="1"
         id="stop42" /></linearGradient><linearGradient
       xlink:href="#linearGradient41"
       id="linearGradient42"
       x1="68"
       y1="25.841551"
       x2="68"
       y2="118.5"
       gradientUnits="userSpaceOnUse" /></defs><metadata
     id="metadata4439"><rdf:RDF><cc:Work
         rdf:about=""><dc:format>image/svg+xml</dc:format><dc:type
           rdf:resource="http://purl.org/dc/dcmitype/StillImage" /></cc:Work></rdf:RDF></metadata><g
     id="g41"
     style="fill:url(#linearGradient42);fill-opacity:1;stroke:none;stroke-width:3.9999984;stroke-dasharray:none"
     transform="matrix(0.2500001,0,0,0.2500001,3.9999965,4.4410896)" /><g
     id="g15"
     transform="matrix(0.67500027,0,0,0.13889005,38.30001,28.163851)"
     style="stroke-width:3.26597202;stroke-dasharray:none"><g
       id="g14"
       transform="matrix(1.0526,0,0,1.2857,-1.2632,-13.429)"
       style="opacity:0.4;stroke-width:2.80744305;stroke-dasharray:none" /></g><g
     id="g12"
     transform="matrix(0.11666673,0,0,0.11666673,0.39999606,-0.49446376)"
     style="stroke-width:8.57142392;stroke-dasharray:none"><path
       id="rect4"
       style="opacity:1;fill:none;stroke:#555761;stroke-width:8.57142392;stroke-linecap:round;stroke-linejoin:round;stroke-dasharray:none;stroke-opacity:1"
       d="M 23.407387 25.666818 C 20.410606 25.666818 18.000024 28.0774 18.000024 31.074181 L 18.000024 77.095362 L 77.999991 77.095362 L 77.999991 31.074181 C 77.999991 28.0774 75.589409 25.666818 72.592628 25.666818 L 23.407387 25.666818 z " /><path
       id="rect10"
       style="opacity:1;fill:#555761;fill-opacity:1;stroke:none;stroke-width:10.9977;stroke-linecap:round;stroke-linejoin:miter;stroke-dasharray:none;stroke-opacity:1"
       d="m 39.428584,29.95253 0,17.142848 h 17.142848 l 0,-17.142848 z" /></g><path
     id="rect3"
     style="fill:#555761;stroke:none;stroke-width:1;stroke-linejoin:round;stroke-dasharray:none;stroke-opacity:1;fill-opacity:1"
     d="M 10 5 L 10 11.884766 A 1.5 1.5 0 0 1 11 11.5 A 1.5 1.5 0 0 1 12.5 13 A 1.5 1.5 0 0 1 12.115234 14 L 13.833984 14 C 14.49217 14 15 13.375971 15 12.738281 L 15 9 L 12 9 L 12 6 L 14.970703 6 C 14.855403 5.4640066 14.400994 5 13.833984 5 L 10 5 z " /><circle
     style="fill:none;stroke:#555761;stroke-width:1;stroke-linejoin:round;stroke-dasharray:none;stroke-opacity:1"
     id="circle20"
     cx="11"
     cy="13"
     r="1.5" /><circle
     style="fill:none;stroke:#555761;stroke-width:1;stroke-linejoin:round;stroke-dasharray:none;stroke-opacity:1"
     id="circle1"
     cx="5"
     cy="13"
     r="1.5" /><path
     id="rect2"
     d="m 1,8 v 4 H 11 V 8 Z"
     style="fill:#555761;stroke:none;stroke-width:1;stroke-linejoin:round;stroke-dasharray:none;stroke-opacity:1;fill-opacity:1" /><path
     id="path25"
     style="opacity:1;fill:none;fill-opacity:1;stroke:#555761;stroke-width:1;stroke-linecap:round;stroke-linejoin:round;stroke-dasharray:none;stroke-opacity:1"
     d="m 2.5,11.5 v 2 h 1.0859375 z m 4,2 h 3.0859375 z" /></svg>
